X: 397
T: America Lies Far Away
M:6/8
L:1/8
B:O'Neill's 397
N:"Tenderly."
N:The ornament (~) is a trill.
N:"collected by F. O'Neill"
Z:Transcribed by Chris Falt, cfalt@trytel.com
K:Am
(e/2>d/2)|BAA ABG|Ad2 e/2^f/2g2|a>ge/2d/2 B2A|G3-G2e/2>d/2|
BAA ABG|Ad2 e/2^f/2g2|a/2g/2ed B2A|A3-A2||
e/2f/2|ged eaa|g2b a/2g/2e2|(~a/2g/2e)d B2A|G3-G2(e/2>d/2)|
BAA ABG|Ad2 e/2^f/2g2|a/2g/2ed B2A|A3-A2||


